X: 1
T: The Slip-On Gang
R: reel
C: Damien McKee
M: 4/4
L: 1/8
Z: Contributed 2016-01-12 23:07:13 by debby knight debbyjk@aol.com
K: A
"A"e3e efed | "A/C#"caaa eAce | "D"dfed "A/C#"ceAc | "E/B"B2ef  "E/G#"edBG |
"A"A2ee efed | "A/C#"caaa eAce | "D"dfed "A/C#"ceAc |1 "E/E-G#"BedB "A"A2 GB :|\
	[2 "E/E-G#"BedB "A"A2GA ||
| "E"BE (3EEE eBde | "A"cA (3AAA "A/C#"cAce | "D"fd (3ddd "A/C#"ec (3ccc | "Bm"d2cd "Bm/A"BAGA |
"E/G#"BE (3EEE "E"eBde | "A"cA (3AAA cA"A/C#"ce | "D"fd (3ddd "A"ec Ac |1 "E"dBGB "A"A2GA :|2 "E"dBGB "A"A4 ||

